; generated by PrusaSlicer 2.5.0 on 2025-06-21 at 00:24:21 UTC

; 

; external perimeters extrusion width = 0.42mm
; perimeters extrusion width = 0.44mm
; infill extrusion width = 0.44mm
; solid infill extrusion width = 0.44mm
; top infill extrusion width = 0.40mm
; first layer extrusion width = 0.42mm

M107
;TYPE:Custom
G90 ; use absolute coordinates
M83 ; extruder relative mode
M140 S60 ; set final bed temp
M104 S150 ; set temporary nozzle temp to prevent oozing during homing
G4 S10 ; allow partial nozzle warmup
G28 ; home all axis
G1 Z50 F240
G1 X2 Y10 F3000
M104 S210 ; set final nozzle temp
M190 S60 ; wait for bed temp to stabilize
M109 S210 ; wait for nozzle temp to stabilize
G1 Z0.28 F240
G92 E0
G1 Y140 E10 F1500 ; prime the nozzle
G1 X2.3 F5000
G92 E0
G1 Y10 E10 F1200 ; prime the nozzle
G92 E0
G21 ; set units to millimeters
G90 ; use absolute coordinates
M83 ; use relative distances for extrusion
; Filament gcode
M107
;LAYER_CHANGE
;Z:0.2
;HEIGHT:0.2
;BEFORE_LAYER_CHANGE
G92 E0
;0.2


G1 E-5 F3600
G1 Z.2 F9000
;AFTER_LAYER_CHANGE
;0.2
G1 X70.339 Y47.11
G1 E5 F2400
M204 S500
;TYPE:Skirt/Brim
;WIDTH:0.42
G1 F1200
G1 X71.129 Y46.058 E.04126
G1 X71.647 Y45.587 E.02193
G1 X72.285 Y45.15 E.02426
G1 X73.51 Y44.624 E.04182
G1 X74.819 Y44.416 E.04155
G1 X156.083 Y44.414 E2.54797
G1 X157.105 Y44.528 E.03226
G1 X158.109 Y44.845 E.03301
G1 X158.913 Y45.271 E.02853
G1 X159.743 Y45.93 E.03321
G1 X160.418 Y46.726 E.03274
G1 X160.933 Y47.651 E.03319
G1 X161.235 Y48.564 E.03015
G1 X161.374 Y49.609 E.03304
G1 X161.377 Y181.21 E4.12626
G1 X161.195 Y182.597 E.04385
G1 X160.654 Y183.903 E.04433
G1 X159.86 Y184.953 E.04127
G1 X159.273 Y185.475 E.02463
G1 X158.693 Y185.864 E.0219
G1 X157.387 Y186.405 E.04433
G1 X156.083 Y186.586 E.04128
G1 X75 Y186.587 E2.5423
G1 X73.637 Y186.411 E.04308
G1 X72.315 Y185.868 E.04482
G1 X71.257 Y185.07 E.04154
G1 X70.735 Y184.483 E.02464
G1 X70.346 Y183.903 E.02189
G1 X69.807 Y182.602 E.04416
G1 X69.624 Y181.296 E.04133
G1 X69.623 Y49.79 E4.12329
G1 X69.805 Y48.403 E.04385
G1 X70.316 Y47.166 E.04198
G1 E-3.5 F3600
;WIPE_START
G1 F7200
G1 X71.129 Y46.058 E-.65277
G1 X71.647 Y45.587 E-.33219
G1 X72.285 Y45.15 E-.36747
G1 X72.425 Y45.089 E-.07257
;WIPE_END
G1 E-.075 F3600
G1 X74.226 Y49.325 F9000
G1 E5 F2400
;TYPE:Perimeter
;WIDTH:0.419999
G1 F1200
G1 X74.336 Y49.143 E.00668
G1 X74.678 Y48.926 E.0127
G1 X75.06 Y48.854 E.01216
G1 X156.021 Y48.856 E2.5385
G1 X156.398 Y48.948 E.01216
G1 X156.69 Y49.165 E.01139
G1 X156.877 Y49.476 E.01139
G1 X156.936 Y49.827 E.01114
G1 X156.936 Y181.15 E4.11756
G1 X156.852 Y181.544 E.01262
G1 X156.664 Y181.857 E.01145
G1 X156.322 Y182.074 E.0127
G1 X155.94 Y182.146 E.01216
G1 X75.06 Y182.146 E2.53596
G1 X74.666 Y182.062 E.01262
G1 X74.353 Y181.874 E.01145
G1 X74.136 Y181.531 E.01271
G1 X74.064 Y181.15 E.01215
G1 X74.064 Y49.85 E4.11684
G1 X74.148 Y49.456 E.01262
G1 X74.195 Y49.377 E.00289
G1 X73.882 Y49.112 F9000
G1 F1200
G1 X74.07 Y48.87 E.0096
G1 X74.389 Y48.634 E.01246
G1 X74.682 Y48.521 E.00984
G1 X75.036 Y48.477 E.0112
G1 X156.049 Y48.479 E2.54009
G1 X156.439 Y48.563 E.01251
G1 X156.78 Y48.738 E.01202
G1 X157.047 Y49.013 E.01203
G1 X157.233 Y49.349 E.01203
G1 X157.313 Y49.813 E.01476
G1 X157.313 Y181.085 E4.11596
G1 X157.27 Y181.521 E.01372
G1 X157.118 Y181.888 E.01247
G1 X156.93 Y182.13 E.00959
G1 X156.61 Y182.367 E.01247
G1 X156.318 Y182.479 E.00981
G1 X155.964 Y182.523 E.0112
G1 X75.125 Y182.523 E2.53465
G1 X74.689 Y182.48 E.01372
G1 X74.322 Y182.328 E.01247
G1 X74.08 Y182.14 E.00959
G1 X73.843 Y181.82 E.01248
G1 X73.731 Y181.528 E.00981
G1 X73.687 Y181.174 E.0112
G1 X73.687 Y49.826 E4.11829
G1 X73.73 Y49.479 E.01098
G1 X73.859 Y49.167 E.01058
G1 X73.553 Y48.92 F9000
;TYPE:External perimeter
G1 F1200
G1 X73.804 Y48.598 E.01281
G1 X74.206 Y48.3 E.01567
G1 X74.59 Y48.152 E.0129
G1 X75.013 Y48.1 E.01338
G1 X156.077 Y48.102 E2.54169
G1 X156.566 Y48.207 E.01569
G1 X157.006 Y48.433 E.0155
G1 X157.35 Y48.789 E.01551
G1 X157.59 Y49.221 E.0155
G1 X157.69 Y49.799 E.01839
G1 X157.69 Y181.085 E4.11639
G1 X157.638 Y181.618 E.01677
G1 X157.447 Y182.08 E.01568
G1 X157.196 Y182.402 E.01281
G1 X156.794 Y182.7 E.01569
G1 X156.411 Y182.848 E.01288
G1 X155.987 Y182.9 E.01339
G1 X75.125 Y182.9 E2.53537
G1 X74.592 Y182.848 E.01677
G1 X74.13 Y182.657 E.01569
G1 X73.808 Y182.405 E.01281
G1 X73.51 Y182.004 E.01569
G1 X73.362 Y181.62 E.01288
G1 X73.31 Y181.197 E.01338
G1 X73.31 Y49.803 E4.11974
G1 X73.362 Y49.382 E.01331
G1 X73.53 Y48.976 E.0138
G1 X73.953 Y48.923 F9000
G1 E-3.5 F3600
;WIPE_START
G1 F7200
G1 X73.804 Y48.598 E-.22162
G1 X74.206 Y48.3 E-.23738
G1 X74.59 Y48.152 E-.19546
G1 X75.013 Y48.1 E-.20272
G1 X76.209 Y48.1 E-.56782
;WIPE_END
G1 E-.075 F3600
G1 X112.517 Y55.466 F9000
G1 E5 F2400
;TYPE:Perimeter
G1 F1200
G1 X112.449 Y55.036 E.01363
G1 X112.461 Y54.427 E.01911
G1 X112.593 Y53.832 E.01911
G1 X112.84 Y53.275 E.01911
G1 X113.193 Y52.778 E.01911
G1 X113.638 Y52.361 E.01911
G1 X114.156 Y52.04 E.01911
G1 X114.728 Y51.828 E.01911
G1 X115.33 Y51.734 E.01911
G1 X115.939 Y51.761 E.01911
G1 X116.53 Y51.908 E.01911
G1 X117.081 Y52.169 E.01911
G1 X117.569 Y52.534 E.01911
G1 X117.975 Y52.989 E.01911
G1 X118.283 Y53.515 E.01911
G1 X118.48 Y54.092 E.01911
G1 X118.56 Y54.696 E.01911
G1 X118.518 Y55.304 E.01911
G1 X118.358 Y55.885 E.01889
G1 X118.128 Y56.366 E.01672
G1 X117.807 Y56.802 E.01698
G1 X117.362 Y57.219 E.01911
G1 X116.844 Y57.54 E.01911
G1 X116.282 Y57.749 E.0188
G1 X115.67 Y57.846 E.01942
G1 X115.061 Y57.819 E.01911
G1 X114.47 Y57.672 E.01911
G1 X113.95 Y57.427 E.018
G1 X113.431 Y57.046 E.02021
G1 X113.025 Y56.591 E.01911
G1 X112.717 Y56.065 E.0191
G1 X112.526 Y55.525 E.01796
G1 X112.904 Y55.456 F9000
G1 F1200
G1 X112.822 Y54.98 E.01514
G1 X112.837 Y54.446 E.01676
G1 X112.958 Y53.925 E.01676
G1 X113.18 Y53.438 E.01676
G1 X113.494 Y53.005 E.01677
G1 X113.887 Y52.643 E.01676
G1 X114.345 Y52.366 E.01676
G1 X114.848 Y52.185 E.01676
G1 X115.377 Y52.108 E.01676
G1 X115.911 Y52.137 E.01676
G1 X116.428 Y52.271 E.01676
G1 X116.909 Y52.504 E.01676
G1 X117.334 Y52.829 E.01676
G1 X117.686 Y53.231 E.01676
G1 X117.952 Y53.695 E.01677
G1 X118.12 Y54.203 E.01676
G1 X118.184 Y54.734 E.01676
G1 X118.142 Y55.267 E.01676
G1 X117.998 Y55.775 E.01656
G1 X117.761 Y56.238 E.01632
G1 X117.454 Y56.634 E.0157
G1 X117.068 Y56.972 E.0161
G1 X116.635 Y57.225 E.01571
G1 X116.162 Y57.391 E.01575
G1 X115.623 Y57.472 E.01707
G1 X115.089 Y57.443 E.01677
G1 X114.572 Y57.309 E.01676
G1 X114.091 Y57.076 E.01677
G1 X113.666 Y56.751 E.01676
G1 X113.314 Y56.349 E.01676
G1 X113.048 Y55.885 E.01676
G1 X112.923 Y55.513 E.01231
G1 X113.258 Y55.341 F9000
;TYPE:External perimeter
G1 F1200
G1 X113.195 Y54.924 E.01324
G1 X113.219 Y54.427 E.01559
G1 X113.336 Y53.983 E.01442
G1 X113.539 Y53.57 E.01442
G1 X113.82 Y53.206 E.01442
G1 X114.167 Y52.904 E.01442
G1 X114.567 Y52.677 E.01442
G1 X115.004 Y52.535 E.01442
G1 X115.461 Y52.481 E.01442
G1 X115.919 Y52.519 E.01442
G1 X116.361 Y52.647 E.01442
G1 X116.769 Y52.86 E.01442
G1 X117.126 Y53.15 E.01442
G1 X117.419 Y53.505 E.01442
G1 X117.635 Y53.91 E.01442
G1 X117.767 Y54.351 E.01442
G1 X117.809 Y54.809 E.01442
G1 X117.76 Y55.266 E.01441
G1 X117.625 Y55.694 E.01408
G1 X117.46 Y56.01 E.01118
G1 X117.18 Y56.374 E.01441
G1 X116.833 Y56.676 E.01442
G1 X116.433 Y56.903 E.01442
G1 X115.996 Y57.045 E.01442
G1 X115.539 Y57.099 E.01442
G1 X115.081 Y57.061 E.01442
G1 X114.639 Y56.933 E.01442
G1 X114.231 Y56.72 E.01442
G1 X113.874 Y56.43 E.01442
G1 X113.581 Y56.075 E.01442
G1 X113.366 Y55.674 E.01427
G1 X113.276 Y55.398 E.0091
G1 X112.874 Y55.229 F9000
G1 E-3.5 F3600
;WIPE_START
G1 F7200
G1 X113.195 Y54.924 E-.2287
G1 X113.219 Y54.427 E-.23618
G1 X113.336 Y53.983 E-.21843
G1 X113.539 Y53.57 E-.21843
G1 X113.82 Y53.206 E-.21844
G1 X114.167 Y52.904 E-.21843
G1 X114.325 Y52.814 E-.08639
;WIPE_END
G1 E-.075 F3600
G1 X97.532 Y114.846 F9000
G1 E5 F2400
;TYPE:Perimeter
G1 F1200
G1 X98.097 Y113.879 E.03511
G1 X98.579 Y113.132 E.02788
G1 X99.255 Y112.2 E.0361
G1 X99.809 Y111.504 E.02788
G1 X100.574 Y110.644 E.0361
G1 X101.195 Y110.007 E.02788
G1 X102.042 Y109.227 E.0361
G1 X102.723 Y108.655 E.02788
G1 X103.644 Y107.964 E.0361
G1 X104.378 Y107.463 E.02788
G1 X105.363 Y106.866 E.0361
G1 X106.143 Y106.44 E.02787
G1 X106.986 Y106.034 E.02935
G1 X107.997 Y105.601 E.03446
G1 X108.881 Y105.279 E.02952
G1 X109.93 Y104.949 E.03446
G1 X110.842 Y104.716 E.02952
G1 X111.918 Y104.492 E.03446
G1 X112.849 Y104.351 E.02952
G1 X113.942 Y104.236 E.03446
G1 X114.772 Y104.197 E.02605
G1 X116.039 Y104.183 E.03973
G1 X117.142 Y104.245 E.03463
G1 X118.021 Y104.332 E.02771
G1 X119.159 Y104.509 E.03611
G1 X120.031 Y104.684 E.02787
G1 X121.145 Y104.973 E.03611
G1 X121.995 Y105.234 E.02788
G1 X123.076 Y105.633 E.03611
G1 X123.895 Y105.977 E.02787
G1 X124.739 Y106.383 E.02935
G1 X125.707 Y106.903 E.03446
G1 X126.51 Y107.394 E.02952
G1 X127.422 Y108.008 E.03446
G1 X128.173 Y108.576 E.02952
G1 X129.019 Y109.278 E.03446
G1 X129.709 Y109.917 E.02952
G1 X130.481 Y110.7 E.03446
G1 X131.105 Y111.405 E.02952
G1 X131.795 Y112.261 E.03446
G1 X132.345 Y113.025 E.02952
G1 X132.946 Y113.945 E.03446
G1 X133.418 Y114.76 E.02952
G1 X133.925 Y115.735 E.03446
G1 X134.312 Y116.593 E.02952
G1 X134.72 Y117.614 E.03446
G1 X135.02 Y118.506 E.02952
G1 X135.324 Y119.562 E.03446
G1 X135.534 Y120.48 E.02952
G1 X135.731 Y121.561 E.03446
G1 X135.848 Y122.495 E.02952
G1 X135.937 Y123.591 E.03446
G1 X135.961 Y124.532 E.02952
G1 X135.94 Y125.631 E.03446
G1 X135.848 Y126.785 E.03628
G1 X135.739 Y127.667 E.02787
G1 X135.585 Y128.548 E.02804
G1 X135.338 Y129.662 E.03577
G1 X135.096 Y130.528 E.02821
G1 X134.74 Y131.612 E.03577
G1 X134.396 Y132.488 E.02952
G1 X133.95 Y133.493 E.03446
G1 X133.541 Y134.294 E.02821
G1 X132.946 Y135.335 E.03758
G1 X132.345 Y136.255 E.03446
G1 X131.827 Y136.977 E.02787
G1 X131.27 Y137.677 E.02804
G1 X130.521 Y138.538 E.03577
G1 X129.679 Y139.392 E.03758
G1 X129.058 Y139.968 E.02657
G1 X128.341 Y140.57 E.02935
G1 X127.469 Y141.238 E.03446
G1 X126.692 Y141.769 E.02952
G1 X125.751 Y142.351 E.03467
G1 X124.738 Y142.897 E.03607
G1 X123.938 Y143.283 E.02787
G1 X123.076 Y143.647 E.02935
G1 X122.045 Y144.029 E.03446
G1 X121.145 Y144.307 E.02952
G1 X120.082 Y144.584 E.03446
G1 X119.159 Y144.771 E.02952
G1 X118.073 Y144.941 E.03447
G1 X116.922 Y145.052 E.03628
G1 X116.034 Y145.097 E.02788
G1 X114.882 Y145.092 E.03611
G1 X113.994 Y145.048 E.02788
G1 X112.849 Y144.929 E.0361
G1 X111.97 Y144.797 E.02788
G1 X110.842 Y144.564 E.0361
G1 X109.98 Y144.345 E.02788
G1 X109.086 Y144.07 E.02935
G1 X108.051 Y143.7 E.03446
G1 X106.986 Y143.246 E.03628
G1 X106.185 Y142.861 E.02787
G1 X105.399 Y142.434 E.02804
G1 X104.422 Y141.846 E.03577
G1 X103.644 Y141.316 E.02952
G1 X102.764 Y140.657 E.03446
G1 X102.042 Y140.053 E.02952
G1 X101.232 Y139.31 E.03446
G1 X100.574 Y138.636 E.02952
G1 X99.842 Y137.816 E.03446
G1 X99.28 Y137.113 E.02821
G1 X98.73 Y136.359 E.02929
G1 X98.119 Y135.436 E.03468
G1 X97.69 Y134.706 E.02656
G1 X97.13 Y133.652 E.03741
G1 X96.654 Y132.616 E.03577
G1 X96.31 Y131.739 E.02952
G1 X95.954 Y130.699 E.03446
G1 X95.645 Y129.584 E.03628
G1 X95.436 Y128.666 E.02952
G1 X95.252 Y127.583 E.03446
G1 X95.14 Y126.701 E.02787
G1 X95.07 Y125.768 E.02935
G1 X95.036 Y124.669 E.03446
G1 X95.07 Y123.512 E.03627
G1 X95.135 Y122.626 E.02787
G1 X95.252 Y121.697 E.02935
G1 X95.436 Y120.614 E.03446
G1 X95.645 Y119.696 E.02952
G1 X95.937 Y118.636 E.03447
G1 X96.31 Y117.541 E.03627
G1 X96.634 Y116.713 E.02788
G1 X97.112 Y115.665 E.0361
G1 X97.504 Y114.899 E.02699
G1 X97.863 Y115.027 F9000
G1 F1200
G1 X98.423 Y114.069 E.03479
G1 X98.895 Y113.336 E.02736
G1 X99.56 Y112.422 E.03545
G1 X100.103 Y111.739 E.02735
G1 X100.856 Y110.895 E.03545
G1 X101.465 Y110.27 E.02735
G1 X102.297 Y109.505 E.03545
G1 X102.965 Y108.944 E.02735
G1 X103.87 Y108.266 E.03545
G1 X104.59 Y107.774 E.02736
G1 X105.558 Y107.189 E.03545
G1 X106.324 Y106.772 E.02735
G1 X107.135 Y106.381 E.02823
G1 X108.145 Y105.948 E.03446
G1 X108.994 Y105.639 E.02834
G1 X110.043 Y105.309 E.03446
G1 X110.919 Y105.085 E.02834
G1 X111.995 Y104.861 E.03446
G1 X112.889 Y104.726 E.02834
G1 X113.982 Y104.611 E.03446
G1 X114.789 Y104.574 E.02533
G1 X116.018 Y104.56 E.03855
G1 X117.119 Y104.621 E.03456
G1 X117.984 Y104.707 E.02726
G1 X119.101 Y104.881 E.03545
G1 X119.956 Y105.054 E.02735
G1 X121.05 Y105.338 E.03545
G1 X121.884 Y105.595 E.02735
G1 X122.945 Y105.986 E.03545
G1 X123.749 Y106.325 E.02735
G1 X124.56 Y106.715 E.02823
G1 X125.528 Y107.236 E.03446
G1 X126.3 Y107.707 E.02834
G1 X127.211 Y108.321 E.03446
G1 X127.932 Y108.866 E.02834
G1 X128.778 Y109.568 E.03446
G1 X129.441 Y110.182 E.02834
G1 X130.213 Y110.965 E.03446
G1 X130.811 Y111.642 E.02834
G1 X131.501 Y112.498 E.03446
G1 X132.029 Y113.231 E.02834
G1 X132.631 Y114.151 E.03446
G1 X133.083 Y114.934 E.02834
G1 X133.59 Y115.909 E.03446
G1 X133.962 Y116.733 E.02834
G1 X134.37 Y117.754 E.03446
G1 X134.658 Y118.61 E.02834
G1 X134.961 Y119.667 E.03446
G1 X135.163 Y120.548 E.02834
G1 X135.36 Y121.629 E.03446
G1 X135.473 Y122.526 E.02834
G1 X135.561 Y123.621 E.03446
G1 X135.584 Y124.525 E.02834
G1 X135.563 Y125.624 E.03446
G1 X135.473 Y126.754 E.03555
G1 X135.365 Y127.62 E.02735
G1 X135.213 Y128.482 E.02745
G1 X134.97 Y129.58 E.03524
G1 X134.733 Y130.426 E.02756
G1 X134.381 Y131.494 E.03524
G1 X134.051 Y132.335 E.02834
G1 X133.605 Y133.34 E.03446
G1 X133.205 Y134.122 E.02756
G1 X132.631 Y135.129 E.03633
G1 X132.029 Y136.049 E.03446
G1 X131.52 Y136.757 E.02735
G1 X130.975 Y137.442 E.02745
G1 X130.237 Y138.29 E.03525
G1 X129.774 Y138.76 E.0207
G1 X128.802 Y139.691 E.0422
G1 X128.112 Y140.27 E.02824
G1 X127.24 Y140.939 E.03446
G1 X126.493 Y141.449 E.02834
G1 X125.555 Y142.029 E.03459
G1 X124.56 Y142.565 E.03543
G1 X123.774 Y142.944 E.02735
G1 X122.945 Y143.294 E.02824
G1 X121.914 Y143.675 E.03446
G1 X121.05 Y143.942 E.02834
G1 X119.987 Y144.219 E.03446
G1 X119.101 Y144.399 E.02834
G1 X118.015 Y144.569 E.03447
G1 X116.886 Y144.676 E.03555
G1 X116.015 Y144.72 E.02735
G1 X114.884 Y144.715 E.03545
G1 X114.013 Y144.672 E.02735
G1 X112.889 Y144.554 E.03545
G1 X112.026 Y144.424 E.02736
G1 X110.919 Y144.195 E.03545
G1 X110.073 Y143.98 E.02735
G1 X109.213 Y143.715 E.02824
G1 X108.178 Y143.345 E.03446
G1 X107.135 Y142.899 E.03555
G1 X106.349 Y142.521 E.02735
G1 X105.579 Y142.103 E.02745
G1 X104.617 Y141.523 E.03525
G1 X103.87 Y141.014 E.02834
G1 X102.99 Y140.355 E.03446
G1 X102.297 Y139.775 E.02834
G1 X101.487 Y139.032 E.03446
G1 X100.856 Y138.385 E.02834
G1 X100.124 Y137.565 E.03446
G1 X99.575 Y136.878 E.02756
G1 X99.035 Y136.137 E.02877
G1 X98.436 Y135.232 E.03403
G1 X98.016 Y134.515 E.02603
G1 X97.466 Y133.48 E.03676
G1 X96.997 Y132.458 E.03525
G1 X96.667 Y131.617 E.02834
G1 X96.311 Y130.577 E.03446
G1 X96.009 Y129.484 E.03555
G1 X95.808 Y128.603 E.02834
G1 X95.623 Y127.52 E.03446
G1 X95.514 Y126.654 E.02735
G1 X95.447 Y125.756 E.02824
G1 X95.413 Y124.657 E.03446
G1 X95.447 Y123.524 E.03555
G1 X95.511 Y122.654 E.02735
G1 X95.623 Y121.76 E.02824
G1 X95.808 Y120.677 E.03446
G1 X96.009 Y119.796 E.02834
G1 X96.3 Y118.736 E.03447
G1 X96.667 Y117.663 E.03555
G1 X96.985 Y116.85 E.02736
G1 X97.455 Y115.822 E.03545
G1 X97.835 Y115.08 E.02613
G1 X98.193 Y115.209 F9000
;TYPE:External perimeter
G1 F1200
G1 X98.748 Y114.26 E.03446
G1 X99.212 Y113.541 E.02683
G1 X99.865 Y112.643 E.03479
G1 X100.398 Y111.974 E.02683
G1 X101.137 Y111.146 E.03479
G1 X101.734 Y110.534 E.02683
G1 X102.552 Y109.783 E.03479
G1 X103.207 Y109.233 E.02683
G1 X104.096 Y108.568 E.03479
G1 X104.803 Y108.086 E.02683
G1 X105.752 Y107.512 E.03479
G1 X106.504 Y107.103 E.02683
G1 X107.283 Y106.727 E.02712
G1 X108.294 Y106.295 E.03446
G1 X109.108 Y105.998 E.02716
G1 X110.159 Y105.668 E.03455
G1 X110.996 Y105.454 E.02708
G1 X112.072 Y105.231 E.03446
G1 X112.928 Y105.101 E.02716
G1 X114.021 Y104.986 E.03446
G1 X114.805 Y104.951 E.0246
G1 X115.997 Y104.936 E.03738
G1 X117.096 Y104.997 E.03449
G1 X117.946 Y105.082 E.0268
G1 X119.043 Y105.254 E.03479
G1 X119.881 Y105.423 E.02683
G1 X120.955 Y105.703 E.03479
G1 X121.773 Y105.955 E.02683
G1 X122.814 Y106.34 E.03479
G1 X123.602 Y106.672 E.02683
