; generated by PrusaSlicer 2.5.0 on 2025-06-21 at 01:03:13 UTC

; 

; external perimeters extrusion width = 0.42mm
; perimeters extrusion width = 0.44mm
; infill extrusion width = 0.44mm
; solid infill extrusion width = 0.44mm
; top infill extrusion width = 0.40mm
; first layer extrusion width = 0.42mm

M107
;TYPE:Custom
G90 ; use absolute coordinates
M83 ; extruder relative mode
M140 S60 ; set final bed temp
M104 S150 ; set temporary nozzle temp to prevent oozing during homing
G4 S10 ; allow partial nozzle warmup
G28 ; home all axis
G1 Z50 F240
G1 X2 Y10 F3000
M104 S210 ; set final nozzle temp
M190 S60 ; wait for bed temp to stabilize
M109 S210 ; wait for nozzle temp to stabilize
G1 Z0.28 F240
G92 E0
G1 Y140 E10 F1500 ; prime the nozzle
G1 X2.3 F5000
G92 E0
G1 Y10 E10 F1200 ; prime the nozzle
G92 E0
G21 ; set units to millimeters
G90 ; use absolute coordinates
M83 ; use relative distances for extrusion
; Filament gcode
M107
;LAYER_CHANGE
;Z:0.2
;HEIGHT:0.2
;BEFORE_LAYER_CHANGE
G92 E0
;0.2


G1 E-5 F3600
G1 Z.2 F9000
;AFTER_LAYER_CHANGE
;0.2
G1 X99.587 Y99.065
G1 E5 F2400
M204 S500
;TYPE:Skirt/Brim
;WIDTH:0.42
G1 F1200
G1 X101.303 Y97.562 E.07151
G1 X103.159 Y96.238 E.07151
G1 X105.03 Y95.16 E.0677
G1 X107.216 Y94.177 E.07513
G1 X109.385 Y93.456 E.07168
G1 X111.611 Y92.957 E.07151
G1 X113.869 Y92.682 E.07133
G1 X116.154 Y92.633 E.07168
G1 X118.428 Y92.812 E.07151
G1 X120.672 Y93.216 E.0715
G1 X122.866 Y93.842 E.07151
G1 X124.985 Y94.683 E.07151
G1 X127.011 Y95.731 E.07151
G1 X128.922 Y96.975 E.07151
G1 X130.609 Y98.323 E.06771
G1 X132.212 Y99.879 E.07003
G1 X133.684 Y101.62 E.07151
G1 X134.976 Y103.5 E.07151
G1 X136.074 Y105.499 E.07151
G1 X136.967 Y107.596 E.07148
G1 X137.648 Y109.774 E.07153
G1 X138.107 Y112 E.07127
G1 X138.346 Y114.319 E.07311
G1 X138.353 Y116.53 E.0693
G1 X138.255 Y117.854 E.04165
G1 X137.906 Y120.115 E.07173
G1 X137.34 Y122.307 E.07097
G1 X136.549 Y124.458 E.07186
G1 X135.55 Y126.514 E.07168
G1 X134.357 Y128.451 E.07133
G1 X132.97 Y130.269 E.07168
G1 X131.413 Y131.935 E.07151
G1 X129.697 Y133.438 E.07151
G1 X127.855 Y134.753 E.07097
G1 X125.861 Y135.895 E.07204
G1 X123.784 Y136.823 E.07133
G1 X121.62 Y137.542 E.0715
G1 X119.395 Y138.042 E.07151
G1 X117.131 Y138.318 E.07151
G1 X114.846 Y138.367 E.07168
G1 X112.578 Y138.189 E.07133
G1 X110.328 Y137.784 E.07168
G1 X108.134 Y137.158 E.07151
G1 X106.015 Y136.317 E.07151
G1 X103.989 Y135.269 E.07151
G1 X102.078 Y134.025 E.07151
G1 X100.3 Y132.596 E.07151
G1 X98.685 Y131.01 E.07097
G1 X97.317 Y129.382 E.06669
G1 X96.025 Y127.502 E.07151
G1 X94.927 Y125.504 E.07151
G1 X94.038 Y123.417 E.07113
G1 X93.354 Y121.232 E.07178
G1 X92.893 Y119 E.07145
G1 X92.654 Y116.682 E.07306
G1 X92.647 Y114.467 E.06946
G1 X92.745 Y113.145 E.04154
G1 X93.094 Y110.885 E.07172
G1 X93.665 Y108.677 E.07151
G1 X94.453 Y106.537 E.07151
G1 X95.45 Y104.486 E.07151
G1 X96.643 Y102.549 E.07133
G1 X98.03 Y100.731 E.07168
G1 X99.546 Y99.109 E.06962
G1 E-3.5 F3600
;WIPE_START
G1 F7200
G1 X101.303 Y97.562 E-1.11163
G1 X101.84 Y97.179 E-.31337
;WIPE_END
G1 E-.075 F3600
G1 X102.628 Y102.303 F9000
G1 E5 F2400
;TYPE:Perimeter
;WIDTH:0.419999
G1 F1200
G1 X103.301 Y101.677 E.02882
G1 X104.006 Y101.087 E.02882
G1 X104.738 Y100.532 E.02882
G1 X105.498 Y100.014 E.02882
G1 X106.282 Y99.534 E.02882
G1 X107.09 Y99.095 E.02882
G1 X107.918 Y98.696 E.02882
G1 X108.765 Y98.339 E.02882
G1 X109.629 Y98.024 E.02882
G1 X110.507 Y97.754 E.02882
G1 X111.398 Y97.527 E.02882
G1 X112.299 Y97.345 E.02882
G1 X113.208 Y97.208 E.02882
G1 X114.122 Y97.116 E.02882
G1 X115.04 Y97.07 E.02882
G1 X115.96 Y97.07 E.02882
G1 X116.878 Y97.116 E.02882
G1 X117.792 Y97.208 E.02882
G1 X118.701 Y97.345 E.02882
G1 X119.602 Y97.527 E.02882
G1 X120.493 Y97.754 E.02882
G1 X121.371 Y98.024 E.02882
G1 X122.235 Y98.339 E.02882
G1 X123.082 Y98.696 E.02882
G1 X123.91 Y99.095 E.02882
G1 X124.718 Y99.534 E.02882
G1 X125.502 Y100.014 E.02882
G1 X126.262 Y100.532 E.02882
G1 X126.994 Y101.087 E.02882
G1 X127.699 Y101.677 E.02882
G1 X128.372 Y102.303 E.02882
G1 X129.014 Y102.961 E.02882
G1 X129.622 Y103.65 E.02882
G1 X130.196 Y104.369 E.02882
G1 X130.732 Y105.115 E.02882
G1 X131.231 Y105.887 E.02882
G1 X131.69 Y106.683 E.02882
G1 X132.11 Y107.501 E.02882
G1 X132.488 Y108.339 E.02882
G1 X132.824 Y109.195 E.02882
G1 X133.116 Y110.066 E.02882
G1 X133.365 Y110.951 E.02882
G1 X133.57 Y111.847 E.02882
G1 X133.73 Y112.752 E.02882
G1 X133.844 Y113.664 E.02882
G1 X133.913 Y114.581 E.02882
G1 X133.935 Y115.506 E.029
G1 X133.913 Y116.412 E.02841
G1 X133.844 Y117.335 E.02904
G1 X133.73 Y118.248 E.02883
G1 X133.57 Y119.153 E.02882
G1 X133.365 Y120.049 E.02882
G1 X133.116 Y120.934 E.02882
G1 X132.824 Y121.805 E.02882
G1 X132.488 Y122.661 E.02882
G1 X132.11 Y123.499 E.02882
G1 X131.69 Y124.317 E.02882
G1 X131.231 Y125.113 E.02882
G1 X130.732 Y125.885 E.02882
G1 X130.196 Y126.631 E.02882
G1 X129.622 Y127.35 E.02882
G1 X129.014 Y128.039 E.02882
G1 X128.372 Y128.697 E.02882
G1 X127.699 Y129.323 E.02882
G1 X126.994 Y129.913 E.02882
G1 X126.262 Y130.468 E.02882
G1 X125.502 Y130.986 E.02882
G1 X124.718 Y131.466 E.02882
G1 X123.91 Y131.905 E.02882
G1 X123.082 Y132.304 E.02882
G1 X122.235 Y132.661 E.02882
G1 X121.371 Y132.976 E.02882
G1 X120.493 Y133.246 E.02882
G1 X119.602 Y133.473 E.02882
G1 X118.701 Y133.655 E.02882
G1 X117.792 Y133.792 E.02882
G1 X116.878 Y133.884 E.02882
G1 X115.96 Y133.93 E.02882
G1 X115.04 Y133.93 E.02882
G1 X114.122 Y133.884 E.02882
G1 X113.208 Y133.792 E.02882
G1 X112.299 Y133.655 E.02882
G1 X111.398 Y133.473 E.02882
G1 X110.507 Y133.246 E.02882
G1 X109.629 Y132.976 E.02882
G1 X108.765 Y132.661 E.02882
G1 X107.918 Y132.304 E.02882
G1 X107.09 Y131.905 E.02882
G1 X106.282 Y131.466 E.02882
G1 X105.498 Y130.986 E.02882
G1 X104.738 Y130.468 E.02882
G1 X104.006 Y129.913 E.02882
G1 X103.301 Y129.323 E.02882
G1 X102.628 Y128.697 E.02882
G1 X101.986 Y128.039 E.02882
G1 X101.378 Y127.35 E.02882
G1 X100.804 Y126.631 E.02882
G1 X100.268 Y125.885 E.02882
G1 X99.769 Y125.113 E.02882
G1 X99.31 Y124.317 E.02882
G1 X98.89 Y123.499 E.02882
G1 X98.512 Y122.661 E.02882
G1 X98.176 Y121.805 E.02882
G1 X97.884 Y120.934 E.02882
G1 X97.635 Y120.049 E.02882
G1 X97.43 Y119.153 E.02882
G1 X97.27 Y118.248 E.02882
G1 X97.156 Y117.336 E.02882
G1 X97.087 Y116.419 E.02883
G1 X97.065 Y115.506 E.02862
G1 X97.087 Y114.587 E.02882
G1 X97.156 Y113.665 E.029
G1 X97.27 Y112.752 E.02883
G1 X97.43 Y111.847 E.02882
G1 X97.635 Y110.951 E.02882
G1 X97.884 Y110.066 E.02882
G1 X98.176 Y109.195 E.02882
G1 X98.512 Y108.339 E.02882
G1 X98.89 Y107.501 E.02882
G1 X99.31 Y106.683 E.02882
G1 X99.769 Y105.887 E.02882
G1 X100.268 Y105.115 E.02882
G1 X100.804 Y104.369 E.02882
G1 X101.378 Y103.65 E.02882
G1 X101.986 Y102.961 E.02882
G1 X102.586 Y102.346 E.02694
G1 X102.364 Y102.033 F9000
G1 F1200
G1 X103.052 Y101.395 E.02941
G1 X103.77 Y100.792 E.02941
G1 X104.518 Y100.225 E.02941
G1 X105.293 Y99.697 E.02941
G1 X106.094 Y99.208 E.02941
G1 X106.917 Y98.759 E.02941
G1 X107.763 Y98.352 E.02941
G1 X108.627 Y97.988 E.02941
G1 X109.508 Y97.667 E.02941
G1 X110.405 Y97.39 E.02941
G1 X111.314 Y97.159 E.02941
G1 X112.233 Y96.973 E.02941
G1 X113.161 Y96.833 E.02941
G1 X114.094 Y96.74 E.02941
G1 X115.031 Y96.693 E.02941
G1 X115.969 Y96.693 E.02941
G1 X116.906 Y96.74 E.02941
G1 X117.839 Y96.833 E.02941
G1 X118.767 Y96.973 E.02941
G1 X119.686 Y97.159 E.02941
G1 X120.595 Y97.39 E.02941
G1 X121.492 Y97.667 E.02941
G1 X122.373 Y97.988 E.02941
G1 X123.237 Y98.352 E.02941
G1 X124.083 Y98.759 E.02941
G1 X124.906 Y99.208 E.02941
G1 X125.707 Y99.697 E.02941
G1 X126.482 Y100.225 E.02941
G1 X127.23 Y100.792 E.02941
G1 X127.948 Y101.395 E.02941
G1 X128.636 Y102.033 E.02941
G1 X129.291 Y102.704 E.02941
G1 X129.911 Y103.407 E.02941
G1 X130.496 Y104.141 E.02941
G1 X131.044 Y104.902 E.02941
G1 X131.553 Y105.69 E.02941
G1 X132.022 Y106.503 E.02941
G1 X132.45 Y107.337 E.02941
G1 X132.835 Y108.193 E.02941
G1 X133.178 Y109.066 E.02941
G1 X133.477 Y109.955 E.02941
G1 X133.731 Y110.858 E.02941
G1 X133.94 Y111.772 E.02941
G1 X134.103 Y112.696 E.02941
G1 X134.219 Y113.627 E.02941
G1 X134.289 Y114.562 E.02941
G1 X134.313 Y115.506 E.02959
G1 X134.29 Y116.43 E.029
G1 X134.219 Y117.373 E.02963
G1 X134.103 Y118.304 E.02942
G1 X133.94 Y119.228 E.02941
G1 X133.731 Y120.142 E.02941
G1 X133.477 Y121.045 E.02941
G1 X133.178 Y121.934 E.02941
G1 X132.835 Y122.807 E.02941
G1 X132.45 Y123.663 E.02941
G1 X132.022 Y124.497 E.02941
G1 X131.553 Y125.31 E.02941
G1 X131.044 Y126.098 E.02941
G1 X130.496 Y126.859 E.02941
G1 X129.911 Y127.593 E.02941
G1 X129.291 Y128.296 E.02941
G1 X128.636 Y128.967 E.02941
G1 X127.948 Y129.605 E.02941
G1 X127.23 Y130.208 E.02941
G1 X126.482 Y130.775 E.02941
G1 X125.707 Y131.303 E.02941
G1 X124.906 Y131.792 E.02941
G1 X124.083 Y132.241 E.02941
G1 X123.237 Y132.648 E.02941
G1 X122.373 Y133.012 E.02941
G1 X121.492 Y133.333 E.02941
G1 X120.595 Y133.61 E.02941
G1 X119.686 Y133.841 E.02941
G1 X118.767 Y134.027 E.02941
G1 X117.839 Y134.167 E.02941
G1 X116.906 Y134.26 E.02941
G1 X115.969 Y134.307 E.02941
G1 X115.031 Y134.307 E.02941
G1 X114.094 Y134.26 E.02941
G1 X113.161 Y134.167 E.02941
G1 X112.233 Y134.027 E.02941
G1 X111.314 Y133.841 E.02941
G1 X110.405 Y133.61 E.02941
G1 X109.508 Y133.333 E.02941
G1 X108.627 Y133.012 E.02941
G1 X107.763 Y132.648 E.02941
G1 X106.917 Y132.241 E.02941
G1 X106.094 Y131.792 E.02941
G1 X105.293 Y131.303 E.02941
G1 X104.518 Y130.775 E.02941
G1 X103.77 Y130.208 E.02941
G1 X103.052 Y129.605 E.02941
G1 X102.364 Y128.967 E.02941
G1 X101.709 Y128.296 E.02941
G1 X101.089 Y127.593 E.02941
G1 X100.504 Y126.859 E.02941
G1 X99.956 Y126.098 E.02941
G1 X99.447 Y125.31 E.02941
G1 X98.978 Y124.497 E.02941
G1 X98.55 Y123.663 E.02941
G1 X98.165 Y122.807 E.02941
G1 X97.822 Y121.934 E.02941
G1 X97.523 Y121.045 E.02941
G1 X97.269 Y120.142 E.02941
G1 X97.06 Y119.228 E.02941
G1 X96.897 Y118.304 E.02941
G1 X96.781 Y117.373 E.02941
G1 X96.711 Y116.437 E.02942
G1 X96.687 Y115.506 E.02921
G1 X96.71 Y114.568 E.02941
G1 X96.781 Y113.627 E.02959
G1 X96.897 Y112.696 E.02942
G1 X97.06 Y111.772 E.02941
G1 X97.269 Y110.858 E.02941
G1 X97.523 Y109.955 E.02941
G1 X97.822 Y109.066 E.02941
G1 X98.165 Y108.193 E.02941
G1 X98.55 Y107.337 E.02941
G1 X98.978 Y106.503 E.02941
G1 X99.447 Y105.69 E.02941
G1 X99.956 Y104.902 E.02941
G1 X100.504 Y104.141 E.02941
G1 X101.089 Y103.407 E.02941
G1 X101.709 Y102.704 E.02941
G1 X102.322 Y102.076 E.02753
G1 X102.101 Y101.763 F9000
;TYPE:External perimeter
G1 F1200
G1 X102.802 Y101.112 E.03
G1 X103.535 Y100.497 E.03
G1 X104.298 Y99.919 E.03
G1 X105.089 Y99.38 E.03
G1 X105.905 Y98.881 E.03
G1 X106.745 Y98.423 E.03
G1 X107.607 Y98.008 E.03
G1 X108.489 Y97.637 E.03
G1 X109.388 Y97.309 E.03
G1 X110.303 Y97.027 E.03
G1 X111.23 Y96.791 E.03
G1 X112.168 Y96.602 E.03
G1 X113.114 Y96.459 E.03
G1 X114.066 Y96.364 E.03
G1 X115.022 Y96.316 E.03
G1 X115.978 Y96.316 E.03
G1 X116.934 Y96.364 E.03
G1 X117.886 Y96.459 E.03
G1 X118.832 Y96.602 E.03
G1 X119.77 Y96.791 E.03
G1 X120.697 Y97.027 E.03
G1 X121.612 Y97.309 E.03
G1 X122.511 Y97.637 E.03
G1 X123.393 Y98.008 E.03
G1 X124.255 Y98.423 E.03
G1 X125.095 Y98.881 E.03
G1 X125.911 Y99.38 E.03
G1 X126.702 Y99.919 E.03
G1 X127.465 Y100.497 E.03
G1 X128.198 Y101.112 E.03
G1 X128.899 Y101.763 E.03
G1 X129.567 Y102.448 E.03
G1 X130.2 Y103.165 E.03
G1 X130.797 Y103.913 E.03
G1 X131.355 Y104.69 E.03
G1 X131.875 Y105.494 E.03
G1 X132.353 Y106.322 E.03
G1 X132.789 Y107.174 E.03
G1 X133.183 Y108.046 E.03
G1 X133.533 Y108.937 E.03
G1 X133.837 Y109.844 E.03
G1 X134.096 Y110.765 E.03
G1 X134.309 Y111.698 E.03
G1 X134.476 Y112.64 E.03
G1 X134.595 Y113.589 E.03
G1 X134.666 Y114.544 E.03001
G1 X134.69 Y115.506 E.03018
G1 X134.666 Y116.449 E.02958
G1 X134.595 Y117.41 E.03022
G1 X134.476 Y118.36 E.03001
G1 X134.309 Y119.302 E.03
G1 X134.096 Y120.235 E.03
G1 X133.837 Y121.156 E.03
G1 X133.533 Y122.063 E.03
G1 X133.183 Y122.954 E.03
G1 X132.79 Y123.826 E.03
G1 X132.353 Y124.678 E.03
G1 X131.875 Y125.506 E.03
G1 X131.355 Y126.31 E.03
G1 X130.797 Y127.087 E.03
G1 X130.2 Y127.835 E.03
G1 X129.567 Y128.552 E.03
G1 X128.899 Y129.237 E.03
G1 X128.198 Y129.888 E.03
G1 X127.465 Y130.503 E.03
G1 X126.702 Y131.081 E.03
G1 X125.911 Y131.62 E.03
G1 X125.095 Y132.119 E.03
G1 X124.255 Y132.577 E.03
G1 X123.393 Y132.992 E.03
G1 X122.511 Y133.363 E.03
G1 X121.612 Y133.691 E.03
G1 X120.697 Y133.973 E.03
G1 X119.77 Y134.209 E.03
G1 X118.832 Y134.398 E.03
G1 X117.886 Y134.541 E.03
G1 X116.934 Y134.636 E.03
G1 X115.978 Y134.684 E.03
G1 X115.022 Y134.684 E.03
G1 X114.066 Y134.636 E.03
G1 X113.114 Y134.541 E.03
G1 X112.168 Y134.398 E.03
G1 X111.23 Y134.209 E.03
G1 X110.303 Y133.973 E.03
G1 X109.388 Y133.691 E.03
G1 X108.489 Y133.363 E.03
G1 X107.607 Y132.992 E.03
G1 X106.745 Y132.577 E.03
G1 X105.905 Y132.119 E.03
G1 X105.089 Y131.62 E.03
G1 X104.298 Y131.081 E.03
G1 X103.535 Y130.503 E.03
G1 X102.802 Y129.888 E.03
G1 X102.101 Y129.237 E.03
G1 X101.433 Y128.552 E.03
G1 X100.8 Y127.835 E.03
G1 X100.203 Y127.087 E.03
G1 X99.645 Y126.31 E.03
G1 X99.125 Y125.506 E.03
G1 X98.647 Y124.678 E.03
G1 X98.211 Y123.826 E.03
G1 X97.817 Y122.954 E.03
G1 X97.467 Y122.063 E.03
G1 X97.163 Y121.156 E.03
G1 X96.904 Y120.235 E.03
G1 X96.691 Y119.302 E.03
G1 X96.524 Y118.36 E.03
G1 X96.405 Y117.411 E.03
G1 X96.334 Y116.456 E.03001
G1 X96.31 Y115.506 E.0298
G1 X96.334 Y114.55 E.03
G1 X96.405 Y113.59 E.03018
G1 X96.524 Y112.64 E.03002
G1 X96.691 Y111.698 E.03
G1 X96.904 Y110.765 E.03
G1 X97.163 Y109.844 E.03
G1 X97.467 Y108.937 E.03
G1 X97.817 Y108.046 E.03
G1 X98.211 Y107.174 E.03
G1 X98.647 Y106.322 E.03
G1 X99.125 Y105.494 E.03
G1 X99.645 Y104.69 E.03
G1 X100.203 Y103.913 E.03
G1 X100.8 Y103.165 E.03
G1 X101.433 Y102.448 E.03
G1 X102.059 Y101.806 E.02812
G1 X102.486 Y101.871 F9000
G1 E-3.5 F3600
;WIPE_START
G1 F7200
G1 X102.802 Y101.112 E-.48294
G1 X103.535 Y100.497 E-.45452
G1 X104.298 Y99.919 E-.45448
G1 X104.356 Y99.88 E-.03306
;WIPE_END
G1 E-.075 F3600
G1 X99.936 Y108.064 F9000
G1 E5 F2400
;TYPE:Perimeter
G1 F1200
G1 X99.936 Y107.594 E.01475
G1 X100.04 Y107.163 E.01387
G1 X100.49 Y106.379 E.02838
G1 X100.964 Y105.641 E.02749
G1 X101.474 Y104.928 E.02749
G1 X102.019 Y104.241 E.02749
G1 X102.598 Y103.582 E.02749
G1 X103.209 Y102.954 E.02749
G1 X103.85 Y102.356 E.02749
G1 X104.52 Y101.791 E.02749
G1 X105.218 Y101.26 E.02749
G1 X105.942 Y100.765 E.02749
G1 X106.689 Y100.306 E.02749
G1 X107.458 Y99.885 E.02749
G1 X108.247 Y99.503 E.02749
G1 X109.055 Y99.161 E.02749
G1 X109.878 Y98.86 E.02749
G1 X110.715 Y98.6 E.02749
G1 X111.564 Y98.383 E.02749
G1 X112.424 Y98.208 E.02749
G1 X113.29 Y98.076 E.02749
G1 X114.163 Y97.987 E.02749
G1 X115.038 Y97.942 E.02749
G1 X115.915 Y97.941 E.02749
G1 X116.791 Y97.984 E.02749
G1 X117.663 Y98.07 E.02749
G1 X118.53 Y98.199 E.02749
G1 X119.39 Y98.372 E.02749
G1 X120.24 Y98.588 E.02749
G1 X121.078 Y98.845 E.02749
G1 X121.902 Y99.144 E.02749
G1 X122.71 Y99.484 E.02749
G1 X123.5 Y99.864 E.02749
G1 X124.27 Y100.283 E.02749
G1 X125.019 Y100.739 E.02749
G1 X125.744 Y101.233 E.02749
G1 X126.443 Y101.761 E.02749
G1 X127.115 Y102.325 E.02749
G1 X127.758 Y102.921 E.02749
G1 X128.37 Y103.548 E.02749
G1 X128.951 Y104.205 E.02749
G1 X129.497 Y104.89 E.02749
G1 X130.009 Y105.602 E.02749
G1 X130.485 Y106.338 E.02749
G1 X130.93 Y107.109 E.0279
G1 X131.022 Y107.315 E.00707
G1 X131.064 Y107.74 E.01339
G1 X131.064 Y123.406 E.49122
G1 X130.93 Y123.891 E.01577
G1 X130.509 Y124.622 E.02646
G1 X130.036 Y125.359 E.02745
G1 X129.526 Y126.072 E.02749
G1 X128.981 Y126.759 E.02749
G1 X128.402 Y127.418 E.02749
G1 X127.791 Y128.046 E.02749
G1 X127.15 Y128.644 E.02749
G1 X126.48 Y129.209 E.02749
G1 X125.782 Y129.74 E.02749
G1 X125.058 Y130.235 E.02749
G1 X124.311 Y130.694 E.02749
G1 X123.542 Y131.115 E.02749
G1 X122.753 Y131.497 E.02749
G1 X121.945 Y131.839 E.02749
G1 X121.122 Y132.14 E.02749
G1 X120.285 Y132.4 E.02749
G1 X119.436 Y132.617 E.02749
G1 X118.576 Y132.792 E.02749
G1 X117.703 Y132.925 E.02771
G1 X116.837 Y133.013 E.02727
G1 X115.962 Y133.058 E.02749
G1 X115.085 Y133.059 E.02749
G1 X114.209 Y133.016 E.02749
G1 X113.337 Y132.93 E.02749
G1 X112.47 Y132.801 E.02749
G1 X111.604 Y132.626 E.02771
